packages/core/src/svgs/tokens/branded/MEDIA.svg

<svg width="24" height="24" viewBox="0 0 24 24" fill="none" xmlns="http://www.w3.org/2000/svg">
<path d="M22.0002 8.48899L18.7979 5.24529L21.9989 2.0009L22.0002 8.48899Z" fill="#FF86C0"/>
<path d="M21.9977 15.2431L21.9965 15.245L18.7954 11.9987L21.9965 8.75496L21.9977 8.7563V15.2431Z" fill="#D93389"/>
<path d="M21.9977 21.9991L18.7954 18.7548L21.9965 15.511L21.9977 21.9991Z" fill="#92278F"/>
<path d="M18.6658 18.6215L18.6646 12.1346L18.6658 12.1326L21.8689 15.377L18.6658 18.6215Z" fill="#B41D8E"/>
<path d="M18.6658 11.8666L18.6646 5.37994L21.8689 8.62366L18.6658 11.8666Z" fill="#EF59A1"/>
<path d="M18.6657 18.6215L15.4634 15.3764L18.6644 12.1346V18.6195L18.6657 18.6215Z" fill="#92278F"/>
<path d="M18.6664 11.8666L15.4653 8.62298L18.6664 5.37859V11.8666Z" fill="#371466"/>
<path d="M18.5549 12.0001L18.5582 12.0034L15.3551 15.247L12.1528 12.0034L12.1541 12.0001H18.5549Z" fill="#702C91"/>
<path d="M12.1543 12.0001L15.3554 8.7503L18.5584 12.0001H12.1543Z" fill="#562988"/>
<path d="M11.9985 18.6215V12.1334L15.2008 15.3771L11.9985 18.6215Z" fill="#371466"/>
<path d="M11.999 18.6215L8.79785 15.3771L11.999 12.1334V18.6215Z" fill="#272262"/>
<path d="M11.8888 12.0001L11.8902 12.0034L8.68787 15.247L5.48682 12.0034L5.48814 12.0001H11.8888Z" fill="#1D3D88"/>
<path d="M5.48828 12.0001L8.66601 8.7503L11.889 12.0001H5.48828Z" fill="#252F77"/>
<path d="M5.33447 18.6215V12.1346L8.53553 15.3771L5.33447 18.6215Z" fill="#084F9D"/>
<path d="M5.33447 11.8654V5.37926L8.53553 8.62298L5.33447 11.8654Z" fill="#272262"/>
<path d="M5.33421 18.6215L2.13184 15.3771L5.33289 12.1334L5.33421 12.1346V18.6215Z" fill="#1B87C7"/>
<path d="M5.33421 11.8654L5.33289 11.8674L2.13184 8.62298L5.33421 5.37926V11.8654Z" fill="#0CB699"/>
<path d="M2 21.9991V15.511L5.20239 18.7548L2 21.9991Z" fill="#0058A2"/>
<path d="M2 15.245V8.75496L5.20239 12.0001L2 15.245Z" fill="#3BC3F3"/>
<path d="M2 8.48899V2.0009L5.20239 5.24529L2 8.48899Z" fill="#0FE9C4"/>
</svg>

<svg xmlns="http://www.w3.org/2000/svg" width="24" height="24" fill="none" viewBox="0 0 24 24">
    <path fill="#FF86C0" d="m22 8.489-3.202-3.244 3.2-3.244z"/>
    <path fill="#D93389" d="m21.998 15.243-.002.002-3.2-3.246 3.2-3.244.002.001z"/>
    <path fill="#92278F" d="m21.998 22-3.203-3.245 3.201-3.244z"/>
    <path fill="#B41D8E" d="m18.666 18.622-.001-6.487v-.002l3.204 3.244z"/>
    <path fill="#EF59A1" d="m18.666 11.867-.001-6.487 3.204 3.244z"/>
    <path fill="#92278F" d="m18.666 18.622-3.203-3.246 3.201-3.241v6.484z"/>
    <path fill="#371466" d="m18.666 11.867-3.2-3.244 3.2-3.244z"/>
    <path fill="#702C91" d="m18.555 12 .003.003-3.203 3.244-3.202-3.244.001-.003z"/>
    <path fill="#562988" d="m12.154 12 3.201-3.25L18.558 12z"/>
    <path fill="#371466" d="M11.999 18.622v-6.489l3.202 3.244z"/>
    <path fill="#272262" d="m11.999 18.622-3.201-3.245 3.201-3.244z"/>
    <path fill="#1D3D88" d="m11.889 12 .001.003-3.202 3.244-3.201-3.244.001-.003z"/>
    <path fill="#252F77" d="m5.488 12 3.178-3.25L11.889 12z"/>
    <path fill="#084F9D" d="M5.334 18.622v-6.487l3.202 3.242z"/>
    <path fill="#272262" d="M5.334 11.865V5.38l3.202 3.244z"/>
    <path fill="#1B87C7" d="m5.334 18.622-3.202-3.245 3.2-3.244.002.002z"/>
    <path fill="#0CB699" d="m5.334 11.865-.001.002-3.201-3.244 3.202-3.244z"/>
    <path fill="#0058A2" d="M2 22v-6.49l3.202 3.244z"/>
    <path fill="#3BC3F3" d="M2 15.245v-6.49L5.202 12z"/>
    <path fill="#0FE9C4" d="M2 8.489V2.001l3.202 3.244z"/>
</svg>
